images/icons/lamp-icon.svg

<svg width="74" height="74" viewBox="0 0 74 74" fill="none" xmlns="http://www.w3.org/2000/svg">
<path d="M28.5232 55.1362H45.4733H28.5232ZM37 4.35486V7.9821V4.35486ZM60.0838 13.9163L57.5193 16.4807L60.0838 13.9163ZM69.6452 37H66.0179H69.6452ZM7.9821 37H4.35486H7.9821ZM16.4807 16.4807L13.9163 13.9163L16.4807 16.4807ZM24.1741 49.8259C21.6382 47.2894 19.9114 44.0578 19.212 40.5398C18.5126 37.0219 18.872 33.3756 20.2448 30.0619C21.6176 26.7482 23.9422 23.916 26.9246 21.9234C29.907 19.9307 33.4132 18.8672 37 18.8672C40.5868 18.8672 44.0931 19.9307 47.0755 21.9234C50.0578 23.916 52.3824 26.7482 53.7552 30.0619C55.1281 33.3756 55.4875 37.0219 54.7881 40.5398C54.0887 44.0578 52.3619 47.2894 49.8259 49.8259L47.8382 51.81C46.7018 52.9466 45.8005 54.2959 45.1856 55.7809C44.5707 57.2659 44.2543 58.8574 44.2545 60.4646V62.3907C44.2545 64.3147 43.4902 66.1599 42.1297 67.5204C40.7692 68.8809 38.924 69.6452 37 69.6452C35.076 69.6452 33.2308 68.8809 31.8703 67.5204C30.5099 66.1599 29.7455 64.3147 29.7455 62.3907V60.4646C29.7455 57.2183 28.4542 54.1025 26.1618 51.81L24.1741 49.8259Z" stroke="#EC7979" stroke-width="6.83333" stroke-linecap="round" stroke-linejoin="round"/>
</svg>

<svg xmlns="http://www.w3.org/2000/svg" width="74" height="74" fill="none"><path stroke="#EC7979" stroke-linecap="round" stroke-linejoin="round" stroke-width="6.833" d="M28.523 55.136h16.95-16.95ZM37 4.355v3.627-3.627Zm23.084 9.561-2.565 2.565 2.565-2.565ZM69.645 37h-3.627 3.627ZM7.982 37H4.355h3.627Zm8.499-20.52-2.565-2.564 2.565 2.565Zm7.693 33.346a18.136 18.136 0 1 1 25.652 0l-1.988 1.984a12.238 12.238 0 0 0-3.584 8.655v1.926a7.254 7.254 0 0 1-14.508 0v-1.926c0-3.247-1.292-6.363-3.584-8.655l-1.988-1.984Z"/></svg>
